gama.ui.shared/icons_svg/dark/overlays/small.unselectable.svg

<svg height="16" viewBox="-130.274 -3115.658 16 16" width="16" xmlns="http://www.w3.org/2000/svg"><g fill="none"><path d="m-126.5598-3105.9436h-1.71429v4.2856h4.28571v-1.7142h-2.57142zm-1.71429-3.4286h1.71429v-2.5714h2.57142v-1.7144h-4.28571zm10.28571 6h-2.57142v1.7142h4.28571v-4.2856h-1.71429zm-2.57142-10.2858v1.7144h2.57142v2.5714h1.71429v-4.2858z" fill="#999"/><path d="m-126.5598-3105.9436h-1.71429v4.2856h4.28571v-1.7142h-2.57142zm-1.71429-3.4286h1.71429v-2.5714h2.57142v-1.7144h-4.28571zm10.28571 6h-2.57142v1.7142h4.28571v-4.2856h-1.71429zm-2.57142-10.2858v1.7144h2.57142v2.5714h1.71429v-4.2858z" stroke="#fff" stroke-linecap="round" stroke-linejoin="round" stroke-width=".5"/><path d="m-117.3675-3114.065 1.50053 1.5005-11.31371 11.3137-1.50053-1.5005z" fill="#999"/><path d="m-117.3675-3114.065 1.50053 1.5005-11.31371 11.3137-1.50053-1.5005z" stroke="#fff" stroke-linecap="round" stroke-linejoin="round" stroke-width=".5"/></g></svg>

<?xml version="1.0" encoding="UTF-8" standalone="no"?>
<!DOCTYPE svg PUBLIC "-//W3C//DTD SVG 1.1//EN" "http://www.w3.org/Graphics/SVG/1.1/DTD/svg11.dtd">
<svg xmlns="http://www.w3.org/2000/svg" xmlns:xl="http://www.w3.org/1999/xlink" version="1.1" xmlns:dc="http://purl.org/dc/elements/1.1/" viewBox="-130.2741 -3115.658 16.000008 16.000008" width="16.000008" height="16.000008">
  <defs/>
  <g id="SOURCES" stroke-opacity="1" fill="none" stroke="none" fill-opacity="1" stroke-dasharray="none">
    <title>SOURCES</title>
    <g id="SOURCES_Dark">
      <title>Dark</title>
      <g id="Graphic_11199"/>
      <g id="Graphic_11200">
        <path d="M -126.5598 -3105.9436 L -128.27409 -3105.9436 L -128.27409 -3101.658 L -123.98838 -3101.658 L -123.98838 -3103.3722 L -126.5598 -3103.3722 L -126.5598 -3105.9436 Z M -128.27409 -3109.3722 L -126.5598 -3109.3722 L -126.5598 -3111.9436 L -123.98838 -3111.9436 L -123.98838 -3113.658 L -128.27409 -3113.658 L -128.27409 -3109.3722 Z M -117.98838 -3103.3722 L -120.5598 -3103.3722 L -120.5598 -3101.658 L -116.27409 -3101.658 L -116.27409 -3105.9436 L -117.98838 -3105.9436 L -117.98838 -3103.3722 Z M -120.5598 -3113.658 L -120.5598 -3111.9436 L -117.98838 -3111.9436 L -117.98838 -3109.3722 L -116.27409 -3109.3722 L -116.27409 -3113.658 L -120.5598 -3113.658 Z" fill="#999"/>
        <path d="M -126.5598 -3105.9436 L -128.27409 -3105.9436 L -128.27409 -3101.658 L -123.98838 -3101.658 L -123.98838 -3103.3722 L -126.5598 -3103.3722 L -126.5598 -3105.9436 Z M -128.27409 -3109.3722 L -126.5598 -3109.3722 L -126.5598 -3111.9436 L -123.98838 -3111.9436 L -123.98838 -3113.658 L -128.27409 -3113.658 L -128.27409 -3109.3722 Z M -117.98838 -3103.3722 L -120.5598 -3103.3722 L -120.5598 -3101.658 L -116.27409 -3101.658 L -116.27409 -3105.9436 L -117.98838 -3105.9436 L -117.98838 -3103.3722 Z M -120.5598 -3113.658 L -120.5598 -3111.9436 L -117.98838 -3111.9436 L -117.98838 -3109.3722 L -116.27409 -3109.3722 L -116.27409 -3113.658 L -120.5598 -3113.658 Z" stroke="white" stroke-linecap="round" stroke-linejoin="round" stroke-width=".5"/>
      </g>
      <g id="Graphic_11197">
        <path d="M -117.3675 -3114.065 L -115.86697 -3112.5645 L -127.18068 -3101.2508 L -128.68121 -3102.7513 Z" fill="#999"/>
        <path d="M -117.3675 -3114.065 L -115.86697 -3112.5645 L -127.18068 -3101.2508 L -128.68121 -3102.7513 Z" stroke="white" stroke-linecap="round" stroke-linejoin="round" stroke-width=".5"/>
      </g>
    </g>
  </g>
</svg>
